src/svgs/arrow-back.svg

<svg width="20" height="15" viewBox="0 0 20 15" fill="none" xmlns="http://www.w3.org/2000/svg">
<path d="M6.52426 0.211469C6.80622 -0.0704896 7.25011 -0.0704896 7.53207 0.211469C7.8045 0.483902 7.8045 0.937321 7.53207 1.20912L2.42189 6.3193H19.2848C19.6779 6.3193 20.0005 6.63174 20.0005 7.02483C20.0005 7.41792 19.6779 7.74052 19.2848 7.74052H2.42189L7.53207 12.8412C7.8045 13.1231 7.8045 13.5772 7.53207 13.849C7.25011 14.1309 6.80622 14.1309 6.52426 13.849L0.204325 7.52905C-0.0681082 7.25662 -0.0681082 6.8032 0.204325 6.5314L6.52426 0.211469Z" fill="#2B4570"/>
</svg>

<svg width="20" height="15" fill="none" xmlns="http://www.w3.org/2000/svg"><path d="M6.524.211a.706.706 0 0 1 1.008 0 .711.711 0 0 1 0 .998l-5.11 5.11h16.863a.71.71 0 1 1 0 1.422H2.422l5.11 5.1a.723.723 0 0 1 0 1.008.706.706 0 0 1-1.008 0l-6.32-6.32a.711.711 0 0 1 0-.998l6.32-6.32Z" fill="#2B4570"/></svg>
